X: 1
T: Famous Last Words
M: 9/8
L: 1/8
R: slip jig
K: Bmin
M:7/8
|: dcBF AFE | Fz~F2 EFA | Fz~F2 EFA | BcdB edc |
dcBF AFE | Fz~F2 EFA | BcdB edc | Bcd ez~e2 :|
|: fgfd ABd | edB d2d2 | BcdB cBA |1 FAc Bcde :|2 BAF Az~a2 ||
|: fefg afd | edB d2d2 | BcdB cBA |1 FAc Bcde :|2 BAF Az~a2 ||
